X:1
T: Up an' Waur them a' Wullie
C:
R:Strathspey
Q: 128
K:G
M:4/4
L:1/16
|:D2|GG3 B3G c4 ce3|GG3 B3G A6 D2|GG3 B3G c3d e3g|((3d2e2c2) ((3B2c2A2) G6 D2|
GG3 B3G c4 ce3|GG3 B3G A6 D2|GG3 B3G c3d e3g|((3d2e2c2) ((3B2c2A2) G6 d2|
gg3 d3B c4 ce3|gg3 d3B A6 f2|gg3 d3B c3d e3g|((3d2e2c2) ((3B2c2A2) G6 d2|
gg3 d3B c4 ce3|gg3 d3B A6 f2|gg3 d3B c3d e3g|((3d2e2c2) ((3B2c2A2) G6:|
